X: 1
T: Just Cruzing
R: reel
S: Laurence Nugent CD
D: Laurence Nugent
Z: transcribed by Jeff Myers <jmyers@GOUCHER.EDU>
M: C|
L: 1/8
K: D
| F~A3 ABAG | F~A3 BAFA | F~A3 ABAF |1 ~G2EF GBAG :|2 ~G2EF G2ag |
| ~f2df eABc | dBGA B~A3 | ~f2df e2cA | GBAG FDD2 |
| ~f2df eAcA | dBGA BAAF | G2BG FAAF | EAAG FDD2 |]
